X: 131010
T: The WEE PICKLE TOW
Q: "Scotch Jig."
R: Jig.
%R: jig
N: This is version 2, for ABC software that understands voice overlays.
B: James Kerr "Merry Melodies" v.1 p.31 s.0 #10
Z: 2016 John Chambers <jc:trillian.mit.edu>
M: 6/8
L: 1/8
K: A
uE |\
EFG ABc | dac uB2ue | cAB cdB | cAA uA2uF |\
EFG ABc | dac uB2ue | cAB cdB | cAA A2 :|
|: a |\
fga fga & f2x f2x | fga x3 & f2x fec | efe efg | aec cBA |\
dcd efg | aec uB2ue | cAB cdB | cAA A2 :|

%%sep 1 1 500
%%sep 1 1 500

